X:1
T:Stola Regia, 76.76 D
T:Stola Regia, 76.76 D
T:John Stainer, 1889
T:Public Domain Courtesy of the Cyber Hymnal™
C:John Stainer, 1889
Z:Public Domain
Z:Courtesy of the Cyber Hymnal™
%%score ( 1 2 ) ( 3 4 )
L:1/8
Q:1/4=115
M:4/4
K:D
V:1 treble 
V:2 treble 
V:3 bass 
V:4 bass 
V:1
 [FA]2 | [FB]2 [Ec]2 [Dd]2 [DA]2 | [DA]4 [DG]2 F2 | [B,E]2 [^DF]2 [EG]2 [CA]2 | [DF]6 [FA]2 | %5
 [FB]2 [Ec]2 [Dd]2 [DA]2 | [EA]4 [E^G]2 [EB]2 | [Ee]2 [FA]2 [EA]2 [D^G]2 | [CA]6 [FA]2 | %9
 [FA]2 [^E^G]2 [Fc]2 [CF]2 | [CF]4 [C^E]2 F2 | [Fd]2 [Ec]2 [FB]2 [FA]2 | [E^G]6 [GB]2 | %13
 [Ac]2 [^Gd]2 [=Ge]2 [EG]2 | [DG]4 [DF]2 [CG]2 | [DA]2 [DB]2 [DE]2 [CE]2 | D6 |] %17
V:2
 x2 | x8 | x6 F2 | x8 | x8 | x8 | x8 | x8 | x8 | x8 | x6 F2 | x8 | x8 | x8 | x8 | x8 | D6 |] %17
V:3
 [D,D]2 | [D,B,]2 [C,^A,]2 [B,,B,]2 [F,=A,]2 | [B,D]4 [B,D]2 [A,C]2 | %3
 [G,B,]2 [F,A,]2 [E,B,]2 [A,,A,]2 | [D,A,]6 [D,D]2 | [D,B,]2 [C,^A,]2 [B,,B,]2 [F,D]2 | %6
 [E,C]4 [E,B,]2 [D,^G,]2 | [C,A,]2 [D,D]2 [E,C]2 B,2 | A,6 [F,C]2 | C2 [B,C]2 [A,C]2 A,2 | %10
 [^G,B,]4 [G,B,]2 [F,A,]2 | [B,,B,]2 [D,^A,]2 [D,B,]2 [^D,B,]2 | [E,B,]6 [DE]2 | %13
 [CE]2 [B,D]2 [A,C]2 [C,A,]2 | [D,A,]4 [D,A,]2 [E,G,]2 | F,2 [G,B,]2 A,2 [A,,G,]2 | [D,F,]6 |] %17
V:4
 x2 | x8 | x8 | x8 | x8 | x8 | x8 | x8 | A,6 x2 | C2 x2 A,2 x2 | x8 | x8 | x8 | x8 | x8 | %15
 F,2 A,2 x4 | x6 |] %17

